img/pseudo-05.svg

<svg width="37" height="52" viewBox="0 0 37 52" fill="none" xmlns="http://www.w3.org/2000/svg">
<path opacity="0.08" d="M36.0895 0.249998L35.5995 4.135C35.4362 5.44166 34.8879 6.50333 33.9545 7.32C33.0212 8.13666 31.5629 8.545 29.5795 8.545H17.9595L15.1595 18.45C16.1395 18.2633 17.0612 18.1233 17.9245 18.03C18.8112 17.9367 19.6629 17.89 20.4795 17.89C22.7195 17.89 24.6679 18.24 26.3245 18.94C28.0045 19.64 29.3929 20.5967 30.4895 21.81C31.6095 23.0233 32.4495 24.4467 33.0095 26.08C33.5695 27.7133 33.8495 29.4517 33.8495 31.295C33.8495 34.2817 33.3245 37.0233 32.2745 39.52C31.2479 41.9933 29.8245 44.1283 28.0045 45.925C26.2079 47.6983 24.0845 49.0867 21.6345 50.09C19.1845 51.07 16.5479 51.56 13.7245 51.56C12.2079 51.56 10.7962 51.385 9.48953 51.035C8.18286 50.7083 6.96953 50.265 5.84953 49.705C4.72953 49.145 3.70286 48.5033 2.76953 47.78C1.85953 47.0333 1.04286 46.2517 0.319531 45.435L3.67953 41.55C4.40286 40.7333 5.24286 40.325 6.19953 40.325C6.8062 40.325 7.3662 40.5117 7.87953 40.885C8.39287 41.2583 8.96453 41.6667 9.59453 42.11C10.2479 42.5533 11.0179 42.9617 11.9045 43.335C12.7912 43.7083 13.8995 43.895 15.2295 43.895C16.8395 43.895 18.2279 43.58 19.3945 42.95C20.5612 42.32 21.5179 41.48 22.2645 40.43C23.0345 39.38 23.5945 38.1667 23.9445 36.79C24.2945 35.4133 24.4695 33.9783 24.4695 32.485C24.4695 30.2683 23.8745 28.53 22.6845 27.27C21.5179 26.01 19.8029 25.38 17.5395 25.38C15.3695 25.38 13.1879 25.8233 10.9945 26.71L5.39453 25.1L12.4295 0.249998H36.0895Z" fill="#262D33"/>
</svg>

<svg width="37" height="52" fill="none" xmlns="http://www.w3.org/2000/svg"><path opacity=".08" d="M36.09.25l-.49 3.885c-.164 1.307-.712 2.368-1.645 3.185-.934.817-2.392 1.225-4.375 1.225H17.96l-2.8 9.905a34.82 34.82 0 012.764-.42c.887-.093 1.739-.14 2.556-.14 2.24 0 4.188.35 5.845 1.05 1.68.7 3.068 1.657 4.165 2.87 1.12 1.213 1.96 2.637 2.52 4.27.56 1.633.84 3.372.84 5.215 0 2.987-.526 5.728-1.575 8.225-1.027 2.473-2.45 4.608-4.27 6.405-1.797 1.773-3.92 3.162-6.37 4.165-2.45.98-5.087 1.47-7.91 1.47-1.517 0-2.929-.175-4.235-.525a17.725 17.725 0 01-3.64-1.33 18.562 18.562 0 01-3.08-1.925 21.367 21.367 0 01-2.45-2.345l3.36-3.885c.723-.817 1.563-1.225 2.52-1.225.606 0 1.166.187 1.68.56.513.373 1.085.782 1.715 1.225.653.443 1.423.852 2.31 1.225.886.373 1.995.56 3.325.56 1.61 0 2.998-.315 4.165-.945a8.313 8.313 0 002.87-2.52c.77-1.05 1.33-2.263 1.68-3.64.35-1.377.524-2.812.524-4.305 0-2.217-.595-3.955-1.785-5.215-1.166-1.26-2.881-1.89-5.145-1.89-2.17 0-4.351.443-6.545 1.33l-5.6-1.61L12.43.25h23.66z" fill="#262D33"/></svg>
